packages/kaspersky-hexa-ui-icons/src/iconsSVGs/16x12/FlagSg.svg

<svg width="16" height="12" viewBox="0 0 16 12" fill="none" xmlns="http://www.w3.org/2000/svg">
<g clip-path="url(#clip0_41818_3688)">
<rect x="0.25" y="0.25" width="15.5" height="11.5" rx="1.75" fill="white" stroke="#F5F5F5" stroke-width="0.5"/>
<mask id="mask0_41818_3688" style="mask-type:luminance" maskUnits="userSpaceOnUse" x="0" y="0" width="16" height="12">
<rect x="0.25" y="0.25" width="15.5" height="11.5" rx="1.75" fill="white" stroke="white" stroke-width="0.5"/>
</mask>
<g mask="url(#mask0_41818_3688)">
<path fill-rule="evenodd" clip-rule="evenodd" d="M0 6.4H16V0H0V6.4Z" fill="#E12237"/>
<path d="M3.8092 0.800133C4.35018 0.800133 4.84646 0.998607 5.23792 1.32845C5.03022 1.24686 4.80574 1.19955 4.57092 1.19955C3.51931 1.19981 2.66686 2.09535 2.66663 3.19955C2.66663 4.30395 3.51917 5.19928 4.57092 5.19955C4.80586 5.19955 5.03013 5.15232 5.23792 5.07064C4.84639 5.40071 4.35038 5.59994 3.8092 5.59994C2.54697 5.59978 1.52405 4.52493 1.52405 3.19955C1.52428 1.87437 2.54711 0.800291 3.8092 0.800133ZM4.95276 4.00033C5.16288 4.00057 5.33348 4.17909 5.33362 4.39974C5.33362 4.62051 5.16296 4.7999 4.95276 4.80013C4.74236 4.80013 4.57092 4.62066 4.57092 4.39974C4.57106 4.17895 4.74245 4.00033 4.95276 4.00033ZM6.4762 4.00033C6.68649 4.00035 6.85692 4.17896 6.85706 4.39974C6.85706 4.62064 6.68657 4.80011 6.4762 4.80013C6.2658 4.80013 6.09534 4.62066 6.09534 4.39974C6.09547 4.17895 6.26588 4.00033 6.4762 4.00033ZM4.19006 2.39974C4.40046 2.39974 4.57092 2.57922 4.57092 2.80013C4.57086 3.02099 4.40042 3.19955 4.19006 3.19955C3.97988 3.19934 3.80927 3.02086 3.8092 2.80013C3.8092 2.57935 3.97984 2.39995 4.19006 2.39974ZM7.23792 2.39974C7.44831 2.39974 7.61877 2.57922 7.61877 2.80013C7.61871 3.02099 7.44827 3.19955 7.23792 3.19955C7.02763 3.19947 6.85712 3.02094 6.85706 2.80013C6.85706 2.57927 7.02759 2.39982 7.23792 2.39974ZM5.71448 1.19955C5.92474 1.19968 6.0953 1.37913 6.09534 1.59994C6.09534 1.82077 5.92476 2.0002 5.71448 2.00033C5.50408 2.00033 5.33362 1.82085 5.33362 1.59994C5.33365 1.37905 5.5041 1.19955 5.71448 1.19955Z" fill="white"/>
</g>
</g>
<defs>
<clipPath id="clip0_41818_3688">
<rect width="16" height="12" fill="white"/>
</clipPath>
</defs>
</svg>

<svg xmlns="http://www.w3.org/2000/svg" width="16" height="12" fill="none" viewBox="0 0 16 12"><g clip-path="url(#a)"><rect width="16" height="12" fill="#fff" stroke="#f5f5f5" rx="2"/><mask id="b" width="16" height="12" x="0" y="0" maskUnits="userSpaceOnUse" style="mask-type:luminance"><rect width="16" height="12" fill="#fff" stroke="#fff" rx="2"/></mask><g mask="url(#b)"><path fill="#e12237" fill-rule="evenodd" d="M0 6.4h16V0H0z" clip-rule="evenodd"/><path fill="#fff" d="M3.8092.8001c.541 0 1.0373.1985 1.4287.5283-.2077-.0815-.4322-.1289-.667-.1289-1.0516.0003-1.904.8958-1.9043 2 0 1.1045.8526 1.9998 1.9043 2 .235 0 .4592-.0472.667-.1289-.3915.3301-.8875.5293-1.4287.5293C2.547 5.5998 1.524 4.525 1.524 3.1996 1.5243 1.8744 2.5471.8002 3.8093.8m1.1436 3.2002c.21.0003.3807.1788.3808.3994 0 .2208-.1706.4002-.3808.4004-.2104 0-.3819-.1794-.3819-.4004.0002-.2207.1715-.3994.3819-.3994m1.5234 0c.2103 0 .3807.1787.3809.3994 0 .221-.1705.4004-.3809.4004s-.3809-.1794-.3809-.4004c.0002-.2207.1706-.3994.3809-.3994M4.1901 2.3997c.2104 0 .3808.1795.3808.4004s-.1705.3994-.3808.3994c-.2102-.0002-.3808-.1786-.3809-.3994s.1706-.4001.3809-.4004m3.0478 0c.2104 0 .3809.1795.3809.4004s-.1705.3994-.3809.3994c-.2103 0-.3808-.1786-.3808-.3994s.1705-.4003.3808-.4004M5.7145 1.1995c.2102.0002.3808.1796.3808.4004 0 .2209-.1705.4003-.3808.4004s-.3809-.1795-.3809-.4004.1705-.4004.3809-.4004"/></g></g><defs><clipPath id="a"><path fill="#fff" d="M0 0h16v12H0z"/></clipPath></defs></svg>
